svg/u1f943.svg

<svg viewBox="0 0 128 128" xmlns="http://www.w3.org/2000/svg">
  <polygon points="20.08,25.95 29.27,102.23 41.28,109.45 68.73,112.48 97.31,104.53 98.72,102.71 109.22,27.92 87.85,33.35 52.26,36.38 24.43,28.62 " opacity="0.5" fill="#FFFFFF"/>
  <path d="M16.96,20.21c-0.12-2.87,13.99-14.49,49.2-13.99s45.33,10.28,45.5,15.33 s-6.4,69.09-6.4,69.09l-1.52,10.28c0,0,0,8.76-0.84,10.45s-6.56,12.44-37.47,12.75c-33.67,0.33-40.05-13.25-40.55-14.77 c-0.51-1.52-0.51-12.64-0.51-12.64l-7.25-66.9C17.13,29.81,17.13,24.08,16.96,20.21z" opacity="0.7" fill="#E0E0E0"/>
  <radialGradient id="SVGID_1_" cx="65.3493" cy="68.9178" gradientTransform="matrix(-8.085567e-03 1 -1.6846 -0.0136 181.9733 4.5093)" gradientUnits="userSpaceOnUse" r="29.3968">
    <stop offset="0.6714" stop-color="#AC5810"/>
    <stop offset="0.7671" stop-color="#A8560F"/>
    <stop offset="0.8641" stop-color="#9C4F0D"/>
    <stop offset="0.9597" stop-color="#884409"/>
  </radialGradient>
  <path d="M27.25,67.61c0,0,1.9,17.37,2.22,19.84c0.48,3.71,1.48,5.51,2.43,6.36 c0.95,0.85,12.25,11.49,32.28,11.96s31.69-10.1,33.23-12.15c0.85-1.14,1.23-4.75,1.52-6.27c0.28-1.52,2.18-17.94,2.18-17.94 L27.25,67.61z" fill="url(#SVGID_1_)"/>
  <path d="M38.62,90.03c-1.5,3.68,4.05,7.04,10.62,9.23c10.29,3.43,24.17,3.18,32.09,0.08 c5.1-2,8.66-4.41,7.84-8s-6.72-0.24-10.86,0.24c-8.41,0.98-17.15,1.14-25.32,0S39.69,87.41,38.62,90.03z" fill="#CF701E"/>
  <path d="M28.68,66.22l4.09,6.75l13.63,4.91l15.54,1.36l17.48-0.29l11.12-2.47l6.75-4.66l3.65-6.14 c0,0-2.7-6.6-18.75-9.16c-16.06-2.57-33.25,0.38-33.25,0.38L34.09,60.9L28.68,66.22z" fill="#DD821D"/>
  <path d="M36.02,71.5c0,0,2.12-3.25,6.45-5.14c5.23-2.29,13.47-2.78,17.15-1.47c3.67,1.31,3.02,4.74,1.55,6.21 c-1.47,1.47-3.1,2.86-3.76,4.33s-1.14,3.51-1.14,3.51l-9.88-1.06l-7.76-2.86L36.02,71.5z" fill="#F6AF3B"/>
  <path d="M84.86,65.43c-0.05,1.54,1.64,1.97,2.65,2.21c1.01,0.24,1.92,0.82,1.92,1.49s-0.23,1.56-0.96,2.12 c-0.82,0.63-1.16,1.65-0.72,2.31c0.58,0.87,2.31,1.49,4.33,0.05c2.19-1.56,3.11-3.57,2.6-6.16c-0.63-3.18-3.37-4.23-5.87-4.43 C86.55,62.85,84.91,63.79,84.86,65.43z" fill="#F6AF3B"/>
  <path d="M32.32,67.43c0,0,2.01-5.92,13.61-7.94c12.43-2.16,22.35-1.42,27.06-1.36 c5.12,0.06,13.48,1.9,13.79,0.36c0.31-1.54-5.57-3.17-13.82-3.71c-8.26-0.54-26.26-1.54-37.76,4.25s-6.49,8.88-6.49,8.88 L32.32,67.43z" fill="#F6AF3B"/>
  <path d="M97.67,63.82c-1.72,0.2-0.76,2.01-1.16,4.17c-0.93,5.02-13.05,9.73-30.43,9.42 c-17.22-0.31-30.81-4.4-33.36-9.65c-1.08-2.22-0.93-3.86-3.4-3.78s-2.49,2.9-1.85,4.32c1.31,2.93,3.6,7.95,20,11.66 c18.77,4.25,36.76,1.54,45.49-2.32c8.23-3.64,8.26-7.65,8.42-9.58S100.38,63.51,97.67,63.82z" fill="#F8C977"/>
  <path d="M31.69,39.41c0,0,0.48,14.37,1.96,19.8c1.09,4.01,3.04,6.45,5.88,6.58c2.16,0.1,5.21-1.96,5.63-6.91 c0.46-5.56,0.51-17,0.51-17s-3.04-0.13-7.15-0.7C34.74,40.66,31.69,39.41,31.69,39.41z" fill="#FFFFFF"/>
  <path d="M109.22,27.92c0,0-7.92,58.43-8.18,62.31c-0.27,3.95-0.7,7.34,1.83,7.42 c2.25,0.07,2.73-8.07,3.17-11.7c0.45-3.64,8.02-63.67,8.02-63.67l-2.2-3.17L109.22,27.92z" fill="#9E9E9E"/>
  <path d="M15.17,21.94c0,0,8.29,67.6,8.5,69.7c0.21,2.1,0.19,6.34,3.26,6.09c2.52-0.2,1.47-4.83,1.15-6.93 c-0.31-2.1-7.03-64.66-7.03-64.66L15.17,21.94z" fill="#D5D5D5"/>
  <path d="M28.92,102.45c-0.94,3.25,4.94,13.57,34.54,13.96c23.72,0.31,36.24-7.76,35.69-13.65 c-0.52-5.67-13.96,7.62-34.85,6.93C38.79,108.86,30.79,96.02,28.92,102.45z" fill="#D5D5D5"/>
  <path d="M31.02,103.92c0.07,2.03,2.49,4.63,9.04,7.2c7.24,2.83,13.2,3.17,13.41,0.74 c0.25-2.84-4.39-2.38-11.32-4.89C35.41,104.52,30.9,100.57,31.02,103.92z" fill="#FEFEFE"/>
  <path d="M65.12,4.22c-33.02-0.25-49.26,7.99-50.08,15.83c-0.78,7.42,11.87,18.97,49.81,18.83 c36.57-0.13,49.14-9.83,49.26-17.19C114.24,13.64,100.6,4.49,65.12,4.22z M65.25,33.15c-32.61-0.82-44.08-9.83-43.94-13.1 c0.14-3.28,11.05-11.74,43.67-11.46c31.66,0.27,43.12,9.28,43.12,11.6C108.1,22.51,97.87,33.97,65.25,33.15z" fill="#C0C0C0"/>
  <path d="M64.48,35.34c35.28,0.35,44.66-10.32,44.78-13.95s-3.4-4.1-3.4-4.1s0.45,1.87,0,3.05 c-1.29,3.4-11.49,11.02-41.61,11.25c-29.67,0.23-40.9-7.65-41.5-11.02c-0.35-1.99,0.94-2.93,0.47-3.63 c-0.47-0.7-2.93,0.82-3.63,3.63C18.66,24.3,23.1,34.93,64.48,35.34z" fill="#FFFFFF"/>
</svg>

<svg viewBox="0 0 128 128" xmlns="http://www.w3.org/2000/svg">
  <defs>
    <radialGradient id="SVGID_1_" cx="68.389307" cy="-39.118458" gradientTransform="matrix(-0.008086 1 -1.6846 -0.0136 0 0)" gradientUnits="userSpaceOnUse" r="29.3968">
      <stop offset="0.6714" stop-color="#AC5810"/>
      <stop offset="0.7671" stop-color="#A8560F"/>
      <stop offset="0.8641" stop-color="#9C4F0D"/>
      <stop offset="0.9597" stop-color="#884409"/>
    </radialGradient>
  </defs>
  <path d="M20.08,25.95 L29.27,102.23 L41.28,109.45 L68.73,112.48 L97.31,104.53 L98.72,102.71 L109.22,27.92 L87.85,33.35 L52.26,36.38 L24.43,28.62 Z" fill="#FFFFFF" opacity="0.5"/>
  <path d="M16.96,20.21 C16.84,17.34 30.95,5.72 66.16,6.22 C101.37,6.72 111.49,16.5 111.66,21.55 C111.83,26.6 105.26,90.64 105.26,90.64 L103.74,100.92 C103.74,100.92 103.74,109.68 102.9,111.37 C102.06,113.06 96.34,123.81 65.43,124.12 C31.76,124.45 25.38,110.87 24.88,109.35 C24.37,107.83 24.37,96.71 24.37,96.71 L17.12,29.81 C17.13,29.81 17.13,24.08 16.96,20.21 Z" fill="#E0E0E0" opacity="0.7"/>
  <path d="M27.25,67.61 C27.25,67.61 29.15,84.98 29.47,87.45 C29.95,91.16 30.95,92.96 31.9,93.81 C32.85,94.66 44.15,105.3 64.18,105.77 C84.21,106.24 95.87,95.67 97.41,93.62 C98.26,92.48 98.64,88.87 98.93,87.35 C99.21,85.83 101.11,69.41 101.11,69.41 L27.25,67.61 Z" fill="url(#SVGID_1_)"/>
  <path d="M38.62,90.03 C37.12,93.71 42.67,97.07 49.24,99.26 C59.53,102.69 73.41,102.44 81.33,99.34 C86.43,97.34 89.99,94.93 89.17,91.34 C88.35,87.75 82.45,91.1 78.31,91.58 C69.9,92.56 61.16,92.72 52.99,91.58 C44.82,90.44 39.69,87.41 38.62,90.03 Z" fill="#CF701E"/>
  <path d="M28.68,66.22 L32.77,72.97 L46.4,77.88 L61.94,79.24 L79.42,78.95 L90.54,76.48 L97.29,71.82 L100.94,65.68 C100.94,65.68 98.24,59.08 82.19,56.52 C66.13,53.95 48.94,56.9 48.94,56.9 L34.09,60.9 L28.68,66.22 Z" fill="#DD821D"/>
  <path d="M36.02,71.5 C36.02,71.5 38.14,68.25 42.47,66.36 C47.7,64.07 55.94,63.58 59.62,64.89 C63.29,66.2 62.64,69.63 61.17,71.1 C59.7,72.57 58.07,73.96 57.41,75.43 C56.75,76.9 56.27,78.94 56.27,78.94 L46.39,77.88 L38.63,75.02 L36.02,71.5 Z" fill="#F6AF3B"/>
  <path d="M84.86,65.43 C84.81,66.97 86.5,67.4 87.51,67.64 C88.52,67.88 89.43,68.46 89.43,69.13 C89.43,69.8 89.2,70.69 88.47,71.25 C87.65,71.88 87.31,72.9 87.75,73.56 C88.33,74.43 90.06,75.05 92.08,73.61 C94.27,72.05 95.19,70.04 94.68,67.45 C94.05,64.27 91.31,63.22 88.81,63.02 C86.55,62.85 84.91,63.79 84.86,65.43 Z" fill="#F6AF3B"/>
  <path d="M32.32,67.43 C32.32,67.43 34.33,61.51 45.93,59.49 C58.36,57.33 68.28,58.07 72.99,58.13 C78.11,58.19 86.47,60.03 86.78,58.49 C87.09,56.95 81.21,55.32 72.96,54.78 C64.7,54.24 46.7,53.24 35.2,59.03 C23.7,64.82 28.71,67.91 28.71,67.91 L32.32,67.43 Z" fill="#F6AF3B"/>
  <path d="M97.67,63.82 C95.95,64.02 96.91,65.83 96.51,67.99 C95.58,73.01 83.46,77.72 66.08,77.41 C48.86,77.1 35.27,73.01 32.72,67.76 C31.64,65.54 31.79,63.9 29.32,63.98 C26.85,64.06 26.83,66.88 27.47,68.3 C28.78,71.23 31.07,76.25 47.47,79.96 C66.24,84.21 84.23,81.5 92.96,77.64 C101.19,74 101.22,69.99 101.38,68.06 C101.54,66.13 100.38,63.51 97.67,63.82 Z" fill="#F8C977"/>
  <path d="M31.69,39.41 C31.69,39.41 32.17,53.78 33.65,59.21 C34.74,63.22 36.69,65.66 39.53,65.79 C41.69,65.89 44.74,63.83 45.16,58.88 C45.62,53.32 45.67,41.88 45.67,41.88 C45.67,41.88 42.63,41.75 38.52,41.18 C34.74,40.66 31.69,39.41 31.69,39.41 Z" fill="#FFFFFF"/>
  <path d="M109.22,27.92 C109.22,27.92 101.3,86.35 101.04,90.23 C100.77,94.18 100.34,97.57 102.87,97.65 C105.12,97.72 105.6,89.58 106.04,85.95 C106.49,82.31 114.06,22.28 114.06,22.28 L111.86,19.11 L109.22,27.92 Z" fill="#9E9E9E"/>
  <path d="M15.17,21.94 C15.17,21.94 23.46,89.54 23.67,91.64 C23.88,93.74 23.86,97.98 26.93,97.73 C29.45,97.53 28.4,92.9 28.08,90.8 C27.77,88.7 21.05,26.14 21.05,26.14 L15.17,21.94 Z" fill="#D5D5D5"/>
  <path d="M28.92,102.45 C27.98,105.7 33.86,116.02 63.46,116.41 C87.18,116.72 99.7,108.65 99.15,102.76 C98.63,97.09 85.19,110.38 64.3,109.69 C38.79,108.86 30.79,96.02 28.92,102.45 Z" fill="#D5D5D5"/>
  <path d="M31.02,103.92 C31.09,105.95 33.51,108.55 40.06,111.12 C47.3,113.95 53.26,114.29 53.47,111.86 C53.72,109.02 49.08,109.48 42.15,106.97 C35.41,104.52 30.9,100.57 31.02,103.92 Z" fill="#FEFEFE"/>
  <path d="M65.12,4.22 C32.1,3.97 15.86,12.21 15.04,20.05 C14.26,27.47 26.91,39.02 64.85,38.88 C101.42,38.75 113.99,29.05 114.11,21.69 C114.24,13.64 100.6,4.49 65.12,4.22 Z M65.25,33.15 C32.64,32.33 21.17,23.32 21.31,20.05 C21.45,16.77 32.36,8.31 64.98,8.59 C96.64,8.86 108.1,17.87 108.1,20.19 C108.1,22.51 97.87,33.97 65.25,33.15 Z" fill="#C0C0C0"/>
  <path d="M64.48,35.34 C99.76,35.69 109.14,25.02 109.26,21.39 C109.38,17.76 105.86,17.29 105.86,17.29 C105.86,17.29 106.31,19.16 105.86,20.34 C104.57,23.74 94.37,31.36 64.25,31.59 C34.58,31.82 23.35,23.94 22.75,20.57 C22.4,18.58 23.69,17.64 23.22,16.94 C22.75,16.24 20.29,17.76 19.59,20.57 C18.66,24.3 23.1,34.93 64.48,35.34 Z" fill="#FFFFFF"/>
</svg>
